icons/svg/layout.svg

<svg width="24" height="24" viewBox="0 0 24 24" fill="none" xmlns="http://www.w3.org/2000/svg">
<path d="M2.75 8.75V16.75C2.75 18.4069 4.09315 19.75 5.75 19.75H10M2.75 8.75L2.75 7.25C2.75 5.59315 4.09315 4.25 5.75 4.25H18.25C19.9069 4.25 21.25 5.59315 21.25 7.25V8.75M2.75 8.75H10M21.25 8.75V16.75C21.25 18.4069 19.9069 19.75 18.25 19.75H10M21.25 8.75H10M10 8.75V19.75" stroke="currentColor" stroke-width="1.5" stroke-linecap="round" stroke-linejoin="round"/>
</svg>

<svg xmlns="http://www.w3.org/2000/svg" width="24" height="24" fill="none" viewBox="0 0 24 24"><path stroke="currentColor" stroke-linecap="round" stroke-linejoin="round" stroke-width="1.5" d="M2.75 8.75v8a3 3 0 0 0 3 3H10m-7.25-11v-1.5a3 3 0 0 1 3-3h12.5a3 3 0 0 1 3 3v1.5m-18.5 0H10m11.25 0v8a3 3 0 0 1-3 3H10m11.25-11H10m0 0v11"/></svg>
